T: La Vie en Rose
C: Edith Piaf
K: C
M: 4/4
L: 1/16
z4 | z16 | z8 | c6 B2 A2,G2,E2 c2 |
w: 
B6 A2,G2 E2,C2 B2 | A6 G2,E2 C2,C2 B2 | A8 G8 |
w: 
d6 c2,B2 A2,F2 c2 | B6 A2,G2,F2 D2 B2 | A6 G2,F2 ^C2,D2 B2 | A8 G8 |
w: 
c6 B2 A2,G2,E2 c2 | B6 A2,G2 E2,C2 B2 | A6 G2,E2 C2,C2 c2 | c16 |
w: 
d2 d4 c2 d2 d4 c2 | d2 d4 c2 E8 | d2 d4 c2 d2 d4 c2 | d2 d4 c2 e4 d4 |
w: 
c6 B2 A2,G2,E2 c2 | B6 A2,G2 E2,C2 B2 | A6 G2 A4 B4 |
w: 
c12 z4 |
w:

Reference: https://musescore.com/user/11105406/scores/4448396